common/app/assets/images/global/gallery.svg

<svg xmlns="http://www.w3.org/2000/svg" width="16" height="14"><path fill="#676767" d="M9.641 2.946l-3.281 5.893h6.552l-3.271-5.893zm-6.552 5.893h3.271l-1.63-2.946-1.641 2.946zm10.804.981h-11.786v-8.838h11.786v8.838zm-12.768-9.82v13.75h13.75v-13.75h-13.75z"/></svg>

<svg xmlns="http://www.w3.org/2000/svg" width="16" height="14"><path fill="#676767" d="M9.64 2.946L6.36 8.84h6.552l-3.27-5.894zM3.09 8.84h3.27L4.73 5.892 3.09 8.84zm10.803.98H2.107V.982h11.786V9.82zM1.125 0v13.75h13.75V0H1.125z"/></svg>
